img/get/arrow.svg

<svg width="140" height="16" viewBox="0 0 140 16" fill="none" xmlns="http://www.w3.org/2000/svg">
<path d="M139.354 8.35355C139.549 8.15829 139.549 7.84171 139.354 7.64645L136.172 4.46447C135.976 4.2692 135.66 4.2692 135.464 4.46447C135.269 4.65973 135.269 4.97631 135.464 5.17157L138.293 8L135.464 10.8284C135.269 11.0237 135.269 11.3403 135.464 11.5355C135.66 11.7308 135.976 11.7308 136.172 11.5355L139.354 8.35355ZM4.96429 8.5C5.24043 8.5 5.46429 8.27614 5.46429 8C5.46429 7.72386 5.24043 7.5 4.96429 7.5V8.5ZM14.8929 7.5C14.6167 7.5 14.3929 7.72386 14.3929 8C14.3929 8.27614 14.6167 8.5 14.8929 8.5V7.5ZM24.8214 8.5C25.0976 8.5 25.3214 8.27614 25.3214 8C25.3214 7.72386 25.0976 7.5 24.8214 7.5V8.5ZM34.75 7.5C34.4739 7.5 34.25 7.72386 34.25 8C34.25 8.27614 34.4739 8.5 34.75 8.5V7.5ZM44.6786 8.5C44.9547 8.5 45.1786 8.27614 45.1786 8C45.1786 7.72386 44.9547 7.5 44.6786 7.5V8.5ZM54.6071 7.5C54.331 7.5 54.1071 7.72386 54.1071 8C54.1071 8.27614 54.331 8.5 54.6071 8.5V7.5ZM64.5357 8.5C64.8119 8.5 65.0357 8.27614 65.0357 8C65.0357 7.72386 64.8119 7.5 64.5357 7.5V8.5ZM74.4643 7.5C74.1881 7.5 73.9643 7.72386 73.9643 8C73.9643 8.27614 74.1881 8.5 74.4643 8.5V7.5ZM84.3929 8.5C84.669 8.5 84.8929 8.27614 84.8929 8C84.8929 7.72386 84.669 7.5 84.3929 7.5V8.5ZM94.3214 7.5C94.0453 7.5 93.8214 7.72386 93.8214 8C93.8214 8.27614 94.0453 8.5 94.3214 8.5V7.5ZM104.25 8.5C104.526 8.5 104.75 8.27614 104.75 8C104.75 7.72386 104.526 7.5 104.25 7.5V8.5ZM114.179 7.5C113.902 7.5 113.679 7.72386 113.679 8C113.679 8.27614 113.902 8.5 114.179 8.5V7.5ZM124.107 8.5C124.383 8.5 124.607 8.27614 124.607 8C124.607 7.72386 124.383 7.5 124.107 7.5V8.5ZM134.036 7.5C133.76 7.5 133.536 7.72386 133.536 8C133.536 8.27614 133.76 8.5 134.036 8.5V7.5ZM0 8.5H4.96429V7.5H0V8.5ZM14.8929 8.5H24.8214V7.5H14.8929V8.5ZM34.75 8.5H44.6786V7.5H34.75V8.5ZM54.6071 8.5H64.5357V7.5H54.6071V8.5ZM74.4643 8.5H84.3929V7.5H74.4643V8.5ZM94.3214 8.5H104.25V7.5H94.3214V8.5ZM114.179 8.5H124.107V7.5H114.179V8.5ZM134.036 8.5H139V7.5H134.036V8.5ZM139.707 8.70711C140.098 8.31658 140.098 7.68342 139.707 7.29289L133.343 0.928932C132.953 0.538408 132.319 0.538408 131.929 0.928932C131.538 1.31946 131.538 1.95262 131.929 2.34315L137.586 8L131.929 13.6569C131.538 14.0474 131.538 14.6805 131.929 15.0711C132.319 15.4616 132.953 15.4616 133.343 15.0711L139.707 8.70711ZM4.96429 9C5.51657 9 5.96429 8.55228 5.96429 8C5.96429 7.44772 5.51657 7 4.96429 7V9ZM14.8929 7C14.3406 7 13.8929 7.44772 13.8929 8C13.8929 8.55228 14.3406 9 14.8929 9V7ZM24.8214 9C25.3737 9 25.8214 8.55228 25.8214 8C25.8214 7.44772 25.3737 7 24.8214 7V9ZM34.75 7C34.1977 7 33.75 7.44772 33.75 8C33.75 8.55228 34.1977 9 34.75 9V7ZM44.6786 9C45.2309 9 45.6786 8.55228 45.6786 8C45.6786 7.44772 45.2309 7 44.6786 7V9ZM54.6071 7C54.0549 7 53.6071 7.44772 53.6071 8C53.6071 8.55228 54.0549 9 54.6071 9V7ZM64.5357 9C65.088 9 65.5357 8.55228 65.5357 8C65.5357 7.44772 65.088 7 64.5357 7V9ZM74.4643 7C73.912 7 73.4643 7.44772 73.4643 8C73.4643 8.55228 73.912 9 74.4643 9V7ZM84.3929 9C84.9452 9 85.3929 8.55228 85.3929 8C85.3929 7.44772 84.9452 7 84.3929 7V9ZM94.3214 7C93.7692 7 93.3214 7.44772 93.3214 8C93.3214 8.55228 93.7692 9 94.3214 9V7ZM104.25 9C104.802 9 105.25 8.55228 105.25 8C105.25 7.44772 104.802 7 104.25 7V9ZM114.179 7C113.626 7 113.179 7.44772 113.179 8C113.179 8.55228 113.626 9 114.179 9V7ZM124.107 9C124.659 9 125.107 8.55228 125.107 8C125.107 7.44772 124.659 7 124.107 7V9ZM134.036 7C133.483 7 133.036 7.44772 133.036 8C133.036 8.55228 133.483 9 134.036 9V7ZM0 9H4.96429V7H0V9ZM14.8929 9H24.8214V7H14.8929V9ZM34.75 9H44.6786V7H34.75V9ZM54.6071 9H64.5357V7H54.6071V9ZM74.4643 9H84.3929V7H74.4643V9ZM94.3214 9H104.25V7H94.3214V9ZM114.179 9H124.107V7H114.179V9ZM134.036 9H139V7H134.036V9Z" fill="#EAD1D0"/>
</svg>

<svg width="140" height="16" fill="none" xmlns="http://www.w3.org/2000/svg"><path d="M139.354 8.354a.5.5 0 000-.708l-3.182-3.182a.501.501 0 00-.708.708L138.293 8l-2.829 2.828a.5.5 0 00.708.708l3.182-3.182zM4.964 8.5a.5.5 0 000-1v1zm9.929-1a.5.5 0 100 1v-1zm9.928 1a.5.5 0 100-1v1zm9.929-1a.5.5 0 000 1v-1zm9.929 1a.5.5 0 000-1v1zm9.928-1a.5.5 0 000 1v-1zm9.929 1a.5.5 0 100-1v1zm9.928-1a.5.5 0 100 1v-1zm9.929 1a.5.5 0 000-1v1zm9.928-1a.5.5 0 000 1v-1zm9.929 1a.5.5 0 000-1v1zm9.929-1a.5.5 0 100 1v-1zm9.928 1a.5.5 0 000-1v1zm9.929-1a.5.5 0 000 1v-1zM0 8.5h4.964v-1H0v1zm14.893 0h9.928v-1h-9.928v1zm19.857 0h9.929v-1H34.75v1zm19.857 0h9.929v-1h-9.929v1zm19.857 0h9.929v-1h-9.929v1zm19.857 0h9.929v-1h-9.929v1zm19.858 0h9.928v-1h-9.928v1zm19.857 0H139v-1h-4.964v1zm5.671.207a1 1 0 000-1.414L133.343.929a1 1 0 10-1.414 1.414L137.586 8l-5.657 5.657a1 1 0 101.414 1.414l6.364-6.364zM4.964 9a1 1 0 000-2v2zm9.929-2a1 1 0 100 2V7zm9.928 2a1 1 0 100-2v2zm9.929-2a1 1 0 100 2V7zm9.929 2a1 1 0 100-2v2zm9.928-2a1 1 0 000 2V7zm9.929 2a1 1 0 100-2v2zm9.928-2a1 1 0 100 2V7zm9.929 2a1 1 0 100-2v2zm9.928-2a1 1 0 000 2V7zm9.929 2a1 1 0 000-2v2zm9.929-2a1 1 0 100 2V7zm9.928 2a1 1 0 000-2v2zm9.929-2a1 1 0 100 2V7zM0 9h4.964V7H0v2zm14.893 0h9.928V7h-9.928v2zM34.75 9h9.929V7H34.75v2zm19.857 0h9.929V7h-9.929v2zm19.857 0h9.929V7h-9.929v2zm19.857 0h9.929V7h-9.929v2zm19.858 0h9.928V7h-9.928v2zm19.857 0H139V7h-4.964v2z" fill="#EAD1D0"/></svg>
